X:308
T: Der geistliche Buchsbaum
N: A0654D
O: Europa, Mitteleuropa, Deutschland
N: Koenigs harmon. Liederschatz 1738 S. 277
R: Romanze, Ballade, Lied, religioeses Lied
M: 4/4
L: 1/4
K: A
AAA | Bcdc | B2zc | ddcA | BcB2 | z
BAA | AFG2 | A2zB | cddc | A2B2 | z
Acd | dcB2 | A4 | z

